lib/flags/hm-heard-and-mc-donald-islands.svg

<svg xmlns="http://www.w3.org/2000/svg" fill="none" aria-hidden="true" viewBox="0 0 42 30"><g id="Country=HM - Heard and McDonald Islands, Size=sm (36x24)" filter="url(#filter0_dd_91_27737)"><g clip-path="url(#clip0_91_27737)"><g id="flag"><mask id="mask0_91_27737" width="36" height="24" x="3" y="2" maskUnits="userSpaceOnUse" style="mask-type:alpha"><rect id="mask" width="36" height="24" x="3" y="2" fill="white"/></mask><g mask="url(#mask0_91_27737)"><g id="contents"><path id="background" fill="#2E42A5" fill-rule="evenodd" d="M3 2V26H39V2H3Z" clip-rule="evenodd"/><mask id="mask1_91_27737" width="36" height="24" x="3" y="2" maskUnits="userSpaceOnUse" style="mask-type:alpha"><path id="background_2" fill="white" fill-rule="evenodd" d="M3 2V26H39V2H3Z" clip-rule="evenodd"/></mask><g mask="url(#mask1_91_27737)"><g id="gb - large"><g id="flag_2"><rect id="mask_2" width="20.25" height="14" x="3" y="2" fill="#2B409A"/><mask id="mask2_91_27737" width="21" height="14" x="3" y="2" maskUnits="userSpaceOnUse" style="mask-type:alpha"><rect id="mask_3" width="20.25" height="14" x="3" y="2" fill="white"/></mask><g mask="url(#mask2_91_27737)"><g id="contents_2"><g id="stripe"><path id="white" fill="#F7FCFF" d="M0.745117 14.9996L5.20119 16.7368L23.351 3.88854L25.7015 1.30701L20.9364 0.726383L13.5335 6.26307L7.57493 9.99351L0.745117 14.9996Z"/><path id="red" fill="#F50100" d="M1.35498 16.217L3.62514 17.2251L24.8573 1.06738H21.6697L1.35498 16.217Z"/></g><g id="stripe_2"><path id="white_2" fill="#F7FCFF" d="M25.5049 14.9996L21.0488 16.7368L2.89897 3.88854L0.548492 1.30701L5.31362 0.726383L12.7165 6.26307L18.6751 9.99351L25.5049 14.9996Z"/><path id="red_2" fill="#F50100" d="M25.353 15.8732L23.0829 16.8813L14.042 9.96339L11.3616 9.19046L0.322518 1.31593H3.51009L14.5429 9.00356L17.4735 9.93038L25.353 15.8732Z"/></g><g id="cross"><g id="red_3"><mask id="path-11-outside-1_91_27737" width="24" height="18" x="1" y="0" fill="black" maskUnits="userSpaceOnUse"><rect width="24" height="18" x="1" fill="white"/><path fill-rule="evenodd" d="M14.2326 2H11.9826V8H3V10H11.9826V16H14.2326V10H23.25V8H14.2326V2Z" clip-rule="evenodd"/></mask><path fill="#F50100" fill-rule="evenodd" d="M14.2326 2H11.9826V8H3V10H11.9826V16H14.2326V10H23.25V8H14.2326V2Z" clip-rule="evenodd"/><path fill="#F7FCFF" d="M11.9826 2V0.5H10.4826V2H11.9826ZM14.2326 2H15.7326V0.5H14.2326V2ZM11.9826 8V9.5H13.4826V8H11.9826ZM3 8V6.5H1.5V8H3ZM3 10H1.5V11.5H3V10ZM11.9826 10H13.4826V8.5H11.9826V10ZM11.9826 16H10.4826V17.5H11.9826V16ZM14.2326 16V17.5H15.7326V16H14.2326ZM14.2326 10V8.5H12.7326V10H14.2326ZM23.25 10V11.5H24.75V10H23.25ZM23.25 8H24.75V6.5H23.25V8ZM14.2326 8H12.7326V9.5H14.2326V8ZM11.9826 3.5H14.2326V0.5H11.9826V3.5ZM13.4826 8V2H10.4826V8H13.4826ZM3 9.5H11.9826V6.5H3V9.5ZM4.5 10V8H1.5V10H4.5ZM11.9826 8.5H3V11.5H11.9826V8.5ZM13.4826 16V10H10.4826V16H13.4826ZM14.2326 14.5H11.9826V17.5H14.2326V14.5ZM12.7326 10V16H15.7326V10H12.7326ZM23.25 8.5H14.2326V11.5H23.25V8.5ZM21.75 8V10H24.75V8H21.75ZM14.2326 9.5H23.25V6.5H14.2326V9.5ZM12.7326 2V8H15.7326V2H12.7326Z" mask="url(#path-11-outside-1_91_27737)"/></g></g></g></g></g></g></g><g id="stars"><path id="Star" fill="#F7FCFF" d="M13.75 22.5L12.4483 23.7029L12.5773 21.9352L10.8252 21.6676L12.2876 20.6662L11.4045 19.1295L13.0992 19.6485L13.75 18L14.4008 19.6485L16.0955 19.1295L15.2124 20.6662L16.6748 21.6676L14.9227 21.9352L15.0517 23.7029L13.75 22.5Z"/><path id="Star_2" fill="#F7FCFF" d="M26.75 15L25.8822 15.8019L25.9682 14.6235L24.8001 14.445L25.7751 13.7775L25.1863 12.753L26.3161 13.099L26.75 12L27.1839 13.099L28.3137 12.753L27.7249 13.7775L28.6999 14.445L27.5318 14.6235L27.6178 15.8019L26.75 15Z"/><path id="Star_3" fill="#F7FCFF" d="M28.75 7L27.8822 7.80194L27.9682 6.62349L26.8001 6.44504L27.7751 5.77748L27.1863 4.75302L28.3161 5.09903L28.75 4L29.1839 5.09903L30.3137 4.75302L29.7249 5.77748L30.6999 6.44504L29.5318 6.62349L29.6178 7.80194L28.75 7Z"/><path id="Star_4" fill="#F7FCFF" d="M33.75 11L32.8822 11.8019L32.9682 10.6235L31.8001 10.445L32.7751 9.77748L32.1863 8.75302L33.3161 9.09903L33.75 8L34.1839 9.09903L35.3137 8.75302L34.7249 9.77748L35.6999 10.445L34.5318 10.6235L34.6178 11.8019L33.75 11Z"/><path id="Star_5" fill="#F7FCFF" d="M29.75 24L28.8822 24.8019L28.9682 23.6235L27.8001 23.445L28.7751 22.7775L28.1863 21.753L29.3161 22.099L29.75 21L30.1839 22.099L31.3137 21.753L30.7249 22.7775L31.6999 23.445L30.5318 23.6235L30.6178 24.8019L29.75 24Z"/><path id="Star_6" fill="#F7FCFF" d="M33.25 16.25L32.3683 16.7135L32.5367 15.7318L31.8234 15.0365L32.8092 14.8932L33.25 14L33.6908 14.8932L34.6766 15.0365L33.9633 15.7318L34.1317 16.7135L33.25 16.25Z"/></g></g></g></g></g></g><defs><filter id="filter0_dd_91_27737" width="42" height="30" x="0" y="0" color-interpolation-filters="sRGB" filterUnits="userSpaceOnUse"><feFlood flood-opacity="0" result="BackgroundImageFix"/><feColorMatrix in="SourceAlpha" result="hardAlpha" values="0 0 0 0 0 0 0 0 0 0 0 0 0 0 0 0 0 0 127 0"/><feOffset dy="1"/><feGaussianBlur stdDeviation="1"/><feColorMatrix values="0 0 0 0 0.0627451 0 0 0 0 0.0941176 0 0 0 0 0.156863 0 0 0 0.06 0"/><feBlend in2="BackgroundImageFix" result="effect1_dropShadow_91_27737"/><feColorMatrix in="SourceAlpha" result="hardAlpha" values="0 0 0 0 0 0 0 0 0 0 0 0 0 0 0 0 0 0 127 0"/><feOffset dy="1"/><feGaussianBlur stdDeviation="1.5"/><feColorMatrix values="0 0 0 0 0.0627451 0 0 0 0 0.0941176 0 0 0 0 0.156863 0 0 0 0.1 0"/><feBlend in2="effect1_dropShadow_91_27737" result="effect2_dropShadow_91_27737"/><feBlend in="SourceGraphic" in2="effect2_dropShadow_91_27737" result="shape"/></filter><clipPath id="clip0_91_27737"><rect width="36" height="24" x="3" y="2" fill="white" rx="2"/></clipPath></defs></svg>

<svg xmlns="http://www.w3.org/2000/svg" fill="none" aria-hidden="true" viewBox="0 0 42 30"><g filter="url(#a)"><g clip-path="url(#b)"><mask id="c" width="36" height="24" x="3" y="2" maskUnits="userSpaceOnUse" style="mask-type:alpha"><path fill="#fff" d="M3 2h36v24H3z"/></mask><g mask="url(#c)"><path fill="#2E42A5" fill-rule="evenodd" d="M3 2v24h36V2H3Z" clip-rule="evenodd"/><mask id="d" width="36" height="24" x="3" y="2" maskUnits="userSpaceOnUse" style="mask-type:alpha"><path fill="#fff" fill-rule="evenodd" d="M3 2v24h36V2H3Z" clip-rule="evenodd"/></mask><g mask="url(#d)"><path fill="#2B409A" d="M3 2h20.25v14H3z"/><mask id="e" width="21" height="14" x="3" y="2" maskUnits="userSpaceOnUse" style="mask-type:alpha"><path fill="#fff" d="M3 2h20.25v14H3z"/></mask><g mask="url(#e)"><path fill="#F7FCFF" d="m.745 15 4.456 1.737 18.15-12.848 2.35-2.582-4.765-.58-7.402 5.536-5.96 3.73L.746 15Z"/><path fill="#F50100" d="m1.355 16.217 2.27 1.008L24.857 1.067H21.67L1.355 16.217Z"/><path fill="#F7FCFF" d="m25.505 15-4.456 1.737L2.899 3.889.549 1.307l4.765-.58 7.402 5.536 5.96 3.73L25.504 15Z"/><path fill="#F50100" d="m25.353 15.873-2.27 1.008-9.041-6.918-2.68-.773L.322 1.316H3.51l11.033 7.688 2.93.926 7.88 5.943Z"/><mask id="f" width="24" height="18" x="1" y="0" fill="#000" maskUnits="userSpaceOnUse"><path fill="#fff" d="M1 0h24v18H1z"/><path fill-rule="evenodd" d="M14.233 2h-2.25v6H3v2h8.983v6h2.25v-6h9.017V8h-9.017V2Z" clip-rule="evenodd"/></mask><path fill="#F50100" fill-rule="evenodd" d="M14.233 2h-2.25v6H3v2h8.983v6h2.25v-6h9.017V8h-9.017V2Z" clip-rule="evenodd"/><path fill="#F7FCFF" d="M11.983 2V.5h-1.5V2h1.5Zm2.25 0h1.5V.5h-1.5V2Zm-2.25 6v1.5h1.5V8h-1.5ZM3 8V6.5H1.5V8H3Zm0 2H1.5v1.5H3V10Zm8.983 0h1.5V8.5h-1.5V10Zm0 6h-1.5v1.5h1.5V16Zm2.25 0v1.5h1.5V16h-1.5Zm0-6V8.5h-1.5V10h1.5Zm9.017 0v1.5h1.5V10h-1.5Zm0-2h1.5V6.5h-1.5V8Zm-9.017 0h-1.5v1.5h1.5V8Zm-2.25-4.5h2.25v-3h-2.25v3Zm1.5 4.5V2h-3v6h3ZM3 9.5h8.983v-3H3v3Zm1.5.5V8h-3v2h3Zm7.483-1.5H3v3h8.983v-3Zm1.5 7.5v-6h-3v6h3Zm.75-1.5h-2.25v3h2.25v-3Zm-1.5-4.5v6h3v-6h-3ZM23.25 8.5h-9.017v3h9.017v-3Zm-1.5-.5v2h3V8h-3Zm-7.517 1.5h9.017v-3h-9.017v3Zm-1.5-7.5v6h3V2h-3Z" mask="url(#f)"/></g></g><path fill="#F7FCFF" d="m13.75 22.5-1.302 1.203.13-1.768-1.753-.267 1.463-1.002-.883-1.537 1.694.52L13.75 18l.65 1.648 1.696-.518-.884 1.536 1.463 1.002-1.752.267.129 1.768L13.75 22.5Zm13-7.5-.868.802.086-1.178-1.168-.179.975-.668-.589-1.024 1.13.346L26.75 12l.434 1.099 1.13-.346-.59 1.024.976.668-1.168.178.086 1.179L26.75 15Zm2-8-.868.802.086-1.179-1.168-.178.975-.668-.589-1.024 1.13.346L28.75 4l.434 1.099 1.13-.346-.59 1.024.976.668-1.168.178.086 1.179L28.75 7Zm5 4-.868.802.086-1.178-1.168-.179.975-.668-.589-1.024 1.13.346L33.75 8l.434 1.099 1.13-.346-.59 1.024.976.668-1.168.178.086 1.179L33.75 11Zm-4 13-.868.802.086-1.178-1.168-.179.975-.668-.589-1.024 1.13.346L29.75 21l.434 1.099 1.13-.346-.59 1.024.976.668-1.168.178.086 1.179L29.75 24Zm3.5-7.75-.882.463.169-.981-.714-.695.986-.144.441-.893.44.893.987.143-.714.696.169.982-.882-.464Z"/></g></g></g><defs><clipPath id="b"><rect width="36" height="24" x="3" y="2" fill="#fff" rx="2"/></clipPath><filter id="a" width="42" height="30" x="0" y="0" color-interpolation-filters="sRGB" filterUnits="userSpaceOnUse"><feFlood flood-opacity="0" result="BackgroundImageFix"/><feColorMatrix in="SourceAlpha" result="hardAlpha" values="0 0 0 0 0 0 0 0 0 0 0 0 0 0 0 0 0 0 127 0"/><feOffset dy="1"/><feGaussianBlur stdDeviation="1"/><feColorMatrix values="0 0 0 0 0.0627451 0 0 0 0 0.0941176 0 0 0 0 0.156863 0 0 0 0.06 0"/><feBlend in2="BackgroundImageFix" result="effect1_dropShadow_91_27737"/><feColorMatrix in="SourceAlpha" result="hardAlpha" values="0 0 0 0 0 0 0 0 0 0 0 0 0 0 0 0 0 0 127 0"/><feOffset dy="1"/><feGaussianBlur stdDeviation="1.5"/><feColorMatrix values="0 0 0 0 0.0627451 0 0 0 0 0.0941176 0 0 0 0 0.156863 0 0 0 0.1 0"/><feBlend in2="effect1_dropShadow_91_27737" result="effect2_dropShadow_91_27737"/><feBlend in="SourceGraphic" in2="effect2_dropShadow_91_27737" result="shape"/></filter></defs></svg>
